X:13
T:The Old Mole
Z:1998 by Norman Bradley <normanb@ix.netcom.com>
M:6/8
L:1/8
K:D
G2G E>FG|A2FD2D|G2G E>FG|A3d3|B2G E>FG|A2FD2D|E>FG F>EF|E3E3||

